data/lxgw-wenkai-mono-tc.svg

<svg width="133" height="16.366" viewBox="0 0 133 16.366" xmlns="http://www.w3.org/2000/svg"><path transform="translate(0 12.992) scale(.014 -.014)" d="m106-9q-22 0-36 29-6 11-6 17 0 7 3 13.5t3 19.5q0 551-1.5 579.5t-1.5 45.5q0 10 22 10 17 0 35.5-8t18.5-20-1-37.5-1-580.5q72 5 208 5 62 0 75 1 15 0 23.5-19.5t8.5-33.5q0-17-13-17-35 6-112 6-190 0-225-10z"/><path transform="translate(7 12.992) scale(.014 -.014)" d="m99-10q-17 0-35 8.5t-18 18.5q0 3 2 7 42 67 56 95l112 234q-117 255-130 278.5t-24 40.5q-2 5-2 7 0 10 18 19t34 9q18 0 21-9 14-36 120-267 106 220 123 261 3 8 17 8 16 0 34.5-12t18.5-23l-1-5q-23-32-43-74l-113-234 108-233q19-40 56-95l1-4q0-9-18.5-19.5t-37.5-10.5q-17 0-23 11-15 41-123 273-96-201-103-218-14-34-24-55-4-11-26-11z"/><path transform="translate(14 12.992) scale(.014 -.014)" d="m250-17q-66 0-116 28.5t-76.5 96-26.5 187.5q0 166 71 291 75 127 178 127 78 0 116-38 35-29 46-48l1-9q0-14-12-33t-25-19q-8 0-13 10-29 73-113 73-74 0-128-107t-54-257q0-90 18.5-143t52.5-74 81-21q34 0 65.5 28.5t53 84.5 21.5 136l-1 13q-58-7-116-16-10 0-16.5 9.5t-11 22-4.5 22.5q0 14 12 14 34 0 146 9 15 4 26 4 8 0 16-8t13.5-18 5.5-17q0-6-1.5-10.5t-1.5-226.5l2-90q0-13-25-13-16 0-31 7t-15 16q3 30 3 60-13-30-51.5-60.5t-89.5-30.5z"/><path transform="translate(21 12.992) scale(.014 -.014)" d="m370-16q-22 0-43.5 17.5t-26.5 44.5q-30 329-53 510-5-40-17-161.5t-23-235-12-152.5q-1-10-9.5-16t-19.5-6q-22 0-43.5 16.5t-24.5 44.5q-32 395-57 558-12 74-18 86 0 15 24 15 17 0 35.5-8.5t20.5-19.5q1-7 1-14.5t1-14.5 1-26q19-175 41-478 23 246 47 456 5 35 5 49.5t1 22.5 12 12.5 26 4.5q19 0 35.5-6.5t18.5-15.5q0-4 1-6 1-9 1-17t1-21q35-254 57-486l4 41q17 220 38 398 9 64 9 115 2 15 24 15 16 0 33-9.5t17-24.5q-27-120-78-665-2-23-29-23z"/><path transform="translate(35 12.992) scale(.014 -.014)" d="m370-16q-22 0-43.5 17.5t-26.5 44.5q-30 329-53 510-5-40-17-161.5t-23-235-12-152.5q-1-10-9.5-16t-19.5-6q-22 0-43.5 16.5t-24.5 44.5q-32 395-57 558-12 74-18 86 0 15 24 15 17 0 35.5-8.5t20.5-19.5q1-7 1-14.5t1-14.5 1-26q19-175 41-478 23 246 47 456 5 35 5 49.5t1 22.5 12 12.5 26 4.5q19 0 35.5-6.5t18.5-15.5q0-4 1-6 1-9 1-17t1-21q35-254 57-486l4 41q17 220 38 398 9 64 9 115 2 15 24 15 16 0 33-9.5t17-24.5q-27-120-78-665-2-23-29-23z"/><path transform="translate(42 12.992) scale(.014 -.014)" d="m230-18q-48 0-85.5 26t-59.5 74-22 128q-19 16-19 31 0 13 20 13l5 1q14 75 75 151 67 80 153 80 58 0 92-21.5t47.5-55.5 13.5-69q0-34-5-53-13-53-180-82-56-9-137-9 0-76 29.5-115.5t72.5-39.5q113 0 187 83 15 16 24 16 12 0 12-12 0-8-13-31-27-52-110-95-42-20-100-20zm-95 270h15q66 0 110.5 8.5t74.5 18 39.5 22.5 9.5 40q0 87-87 87-61 0-105.5-58.5t-56.5-117.5z"/><path transform="translate(49 12.992) scale(.014 -.014)" d="m115-11q-16 0-33 8t-17 20q0 27 2 71v307q-3 63-3 76 0 10 20 10 16 0 33-8t17-20l-2-67q23 42 70 70.5t98 28.5q83 0 114-64 22-47 22-124 0-198 1-219 2-45 2-80 0-9-20-9-16 0-33 8t-17 20q1 8 1 27.5t1 39.5v209q0 60-14.5 95t-56.5 35q-69 0-115-55-43-55-48-139-4-45-4-150 0-23 2-81 0-9-20-9z"/><path transform="translate(56 12.992) scale(.014 -.014)" d="m109-11q-16 0-34 8t-18 20 1 39.5 1 294.5q0 236-3 344 0 10 21 10 17 0 34.5-8t17.5-20-1-37.5-1-216.5q72 73 141.5 155t98.5 121q6 6 17 6 12 0 25.5-6t23-14 9.5-15q0-6-31-31-20-18-44-44-74-89-177-195 203-300 269-360 18-16 18-20 0-9-19-19t-39-10q-24 0-38 24-6 10-14 21-20 25-220 318l-20-20q0-257 1.5-287.5t1.5-47.5q0-10-21-10z"/><path transform="translate(63 12.992) scale(.014 -.014)" d="m195-18q-68 0-108 50t-40 143q0 127 70.5 219t155.5 92q72 0 96-53v42q0 10 22 10 16 0 34-7.5t18-19.5q-5-47-9-152-3-81-3-113 0-102 32-159l2-5q0-10-12.5-26t-30.5-16q-16 0-26.5 21.5t-16.5 52-8 47.5q-28-59-76-92.5t-100-33.5zm-1 60q42 0 80 30 93 75 93 258 0 26 1 44-3-3-13-3-6 0-9 5-28 52-73 52-53 0-105.5-70t-52.5-178q0-138 79-138z"/><path transform="translate(70 12.992) scale(.014 -.014)" d="m107-6q-16 0-25 18.5t-9 32.5q0 18 15 18l40-1 88 1q1 47 1 364-36-5-59-5t-35-1q-15 0-23.5 19.5t-8.5 33.5q0 17 13 17 34-6 44-6 69 0 103 10 23 0 37-29 6-11 6-17 0-7-3-13.5t-3-19.5q0-287 1-352 95 0 108 1 15 0 23.5-19.5t8.5-33.5q0-17-13-17-35 6-112 6-95 0-151-2zm143 596q-19 0-33.5 20t-14.5 40q0 19 12 33.5t36 14.5q19 0 33.5-20.5t14.5-41.5q0-18-12.5-32t-35.5-14z"/><path transform="translate(84 12.992) scale(.014 -.014)" d="m64-7q-31 0-31 16l3 32q6 59 9 118 27 460 27 494-1 8-1 21 3 11 22 20t41 9q10-3 11-5 5-11 26-107l71-351q42 183 106 431 3 13 5.5 26.5t14.5 13.5q9 0 24.5-5.5t29-14 13.5-15.5q0-10-2.5-20t-2.5-26q8-93 17-281l13-256q3-37 10-77 0-10-13-16t-29-6q-32 0-32 17 0 132-17 539-51-199-75-298-9-43-15.5-75t-7.5-43.5-15-19.5-31-8q-28 0-30 23-9 55-83 401-6-138-11-300l-6-146v-72q-1-9-14-14t-27-5z"/><path transform="translate(91 12.992) scale(.014 -.014)" d="m236-18q-92 0-142.5 61t-50.5 164q0 44 13 87t31.5 79 37.5 58.5 30 22.5q13 0 16-6 44 38 106 38 105 0 156-112 21-53 21-129 0-95-54-178-61-85-164-85zm0 61q86 0 131 98 21 46 21 104 0 84-29 132.5t-88 48.5q-68 0-114.5-69.5t-46.5-148.5q0-83 33-124t93-41z"/><path transform="translate(98 12.992) scale(.014 -.014)" d="m115-11q-16 0-33 8t-17 20q0 27 2 71v307q-3 63-3 76 0 10 20 10 16 0 33-8t17-20l-2-67q23 42 70 70.5t98 28.5q83 0 114-64 22-47 22-124 0-198 1-219 2-45 2-80 0-9-20-9-16 0-33 8t-17 20q1 8 1 27.5t1 39.5v209q0 60-14.5 95t-56.5 35q-69 0-115-55-43-55-48-139-4-45-4-150 0-23 2-81 0-9-20-9z"/><path transform="translate(105 12.992) scale(.014 -.014)" d="m236-18q-92 0-142.5 61t-50.5 164q0 44 13 87t31.5 79 37.5 58.5 30 22.5q13 0 16-6 44 38 106 38 105 0 156-112 21-53 21-129 0-95-54-178-61-85-164-85zm0 61q86 0 131 98 21 46 21 104 0 84-29 132.5t-88 48.5q-68 0-114.5-69.5t-46.5-148.5q0-83 33-124t93-41z"/><path transform="translate(119 12.992) scale(.014 -.014)" d="m263-11q-15 0-33 8.5t-18 20.5l2 89v523q-109-7-150-14-16 0-25 18.5t-9 32.5q0 18 15 18 7 0 25.5-1t38.5-1q14 0 256 17 39 3 78 8 14 0 22-18.5t8-32.5q0-18-14-18-56 3-71 3l-105-7q1-561 2.5-589.5t1.5-45.5q0-11-24-11z"/><path transform="translate(126 12.992) scale(.014 -.014)" d="m247-16q-61 0-109 31.5t-75.5 100.5-27.5 177q0 175 70.5 297t174.5 122q106 0 172-93 2-4 2-9 0-13-11-31t-24-18q-9 0-14 9-41 77-128 77-94 0-151-170-24-81-24-182 0-247 149-247 104 0 179 125 10 15 23 15 15 0 15-19 0-5-8-25-17-44-70-99-61-61-143-61z"/></svg>

<?xml version="1.0" encoding="utf-8" ?>
<svg baseProfile="tiny" height="100%" version="1.2" width="100%" xmlns="http://www.w3.org/2000/svg" xmlns:ev="http://www.w3.org/2001/xml-events" xmlns:xlink="http://www.w3.org/1999/xlink"><defs /><g><path d="M106 -9Q84 -9 70 20Q64 31 64 37Q64 44 67.0 50.5Q70 57 70 70Q70 621 68.5 649.5Q67 678 67 695Q67 705 89 705Q106 705 124.5 697.0Q143 689 143.0 677.0Q143 665 142.0 639.5Q141 614 141 59Q213 64 349 64Q411 64 424 65Q439 65 447.5 45.5Q456 26 456 12Q456 -5 443 -5Q408 1 331 1Q141 1 106 -9Z" transform="translate(0.0, 72) scale(0.072, -0.072)" /><path d="M99 -10Q82 -10 64.0 -1.5Q46 7 46 17Q46 20 48 24Q90 91 104 119L216 353Q99 608 86.0 631.5Q73 655 62 672Q60 677 60 679Q60 689 78.0 698.0Q96 707 112 707Q130 707 133 698Q147 662 253 431Q359 651 376 692Q379 700 393 700Q409 700 427.5 688.0Q446 676 446 665L445 660Q422 628 402 586L289 352L397 119Q416 79 453 24L454 20Q454 11 435.5 0.5Q417 -10 398 -10Q381 -10 375 1Q360 42 252 274Q156 73 149 56Q135 22 125 1Q121 -10 99 -10Z" transform="translate(36.0, 72) scale(0.072, -0.072)" /><path d="M250 -17Q184 -17 134.0 11.5Q84 40 57.5 107.5Q31 175 31 295Q31 461 102 586Q177 713 280 713Q358 713 396 675Q431 646 442 627L443 618Q443 604 431.0 585.0Q419 566 406 566Q398 566 393 576Q364 649 280 649Q206 649 152.0 542.0Q98 435 98 285Q98 195 116.5 142.0Q135 89 169.0 68.0Q203 47 250 47Q284 47 315.5 75.5Q347 104 368.5 160.0Q390 216 390 296L389 309Q331 302 273 293Q263 293 256.5 302.5Q250 312 245.5 324.5Q241 337 241 347Q241 361 253 361Q287 361 399 370Q414 374 425 374Q433 374 441.0 366.0Q449 358 454.5 348.0Q460 338 460 331Q460 325 458.5 320.5Q457 316 457 94L459 4Q459 -9 434 -9Q418 -9 403.0 -2.0Q388 5 388 14Q391 44 391 74Q378 44 339.5 13.5Q301 -17 250 -17Z" transform="translate(72.0, 72) scale(0.072, -0.072)" /><path d="M370 -16Q348 -16 326.5 1.5Q305 19 300 46Q270 375 247 556Q242 516 230.0 394.5Q218 273 207.0 159.5Q196 46 195 7Q194 -3 185.5 -9.0Q177 -15 166 -15Q144 -15 122.5 1.5Q101 18 98 46Q66 441 41 604Q29 678 23 690Q23 705 47 705Q64 705 82.5 696.5Q101 688 103 677Q104 670 104.0 662.5Q104 655 105.0 648.0Q106 641 106 622Q125 447 147 144Q170 390 194 600Q199 635 199.0 649.5Q199 664 200.0 672.0Q201 680 212.0 684.5Q223 689 238 689Q257 689 273.5 682.5Q290 676 292 667Q292 663 293 661Q294 652 294.0 644.0Q294 636 295 623Q330 369 352 137L356 178Q373 398 394 576Q403 640 403 691Q405 706 427 706Q443 706 460.0 696.5Q477 687 477 672Q450 552 399 7Q397 -16 370 -16Z" transform="translate(108.0, 72) scale(0.072, -0.072)" /><path d="M370 -16Q348 -16 326.5 1.5Q305 19 300 46Q270 375 247 556Q242 516 230.0 394.5Q218 273 207.0 159.5Q196 46 195 7Q194 -3 185.5 -9.0Q177 -15 166 -15Q144 -15 122.5 1.5Q101 18 98 46Q66 441 41 604Q29 678 23 690Q23 705 47 705Q64 705 82.5 696.5Q101 688 103 677Q104 670 104.0 662.5Q104 655 105.0 648.0Q106 641 106 622Q125 447 147 144Q170 390 194 600Q199 635 199.0 649.5Q199 664 200.0 672.0Q201 680 212.0 684.5Q223 689 238 689Q257 689 273.5 682.5Q290 676 292 667Q292 663 293 661Q294 652 294.0 644.0Q294 636 295 623Q330 369 352 137L356 178Q373 398 394 576Q403 640 403 691Q405 706 427 706Q443 706 460.0 696.5Q477 687 477 672Q450 552 399 7Q397 -16 370 -16Z" transform="translate(180.0, 72) scale(0.072, -0.072)" /><path d="M230 -18Q182 -18 144.5 8.0Q107 34 85.0 82.0Q63 130 63 210Q44 226 44 241Q44 254 64 254L69 255Q83 330 144 406Q211 486 297 486Q355 486 389.0 464.5Q423 443 436.5 409.0Q450 375 450 340Q450 306 445 287Q432 234 265 205Q209 196 128 196Q128 120 157.5 80.5Q187 41 230 41Q343 41 417 124Q432 140 441 140Q453 140 453 128Q453 120 440 97Q413 45 330 2Q288 -18 230 -18ZM135 252H150Q216 252 260.5 260.5Q305 269 335.0 278.5Q365 288 374.5 301.0Q384 314 384 341Q384 428 297 428Q236 428 191.5 369.5Q147 311 135 252Z" transform="translate(216.0, 72) scale(0.072, -0.072)" /><path d="M115 -11Q99 -11 82.0 -3.0Q65 5 65 17Q65 44 67 88V395Q64 458 64 471Q64 481 84 481Q100 481 117.0 473.0Q134 465 134 453L132 386Q155 428 202.0 456.5Q249 485 300 485Q383 485 414 421Q436 374 436 297Q436 99 437 78Q439 33 439 -2Q439 -11 419 -11Q403 -11 386.0 -3.0Q369 5 369 17Q370 25 370.0 44.5Q370 64 371 84V293Q371 353 356.5 388.0Q342 423 300 423Q231 423 185 368Q142 313 137 229Q133 184 133 79Q133 56 135 -2Q135 -11 115 -11Z" transform="translate(252.0, 72) scale(0.072, -0.072)" /><path d="M109 -11Q93 -11 75.0 -3.0Q57 5 57.0 17.0Q57 29 58.0 56.5Q59 84 59 351Q59 587 56 695Q56 705 77 705Q94 705 111.5 697.0Q129 689 129.0 677.0Q129 665 128.0 639.5Q127 614 127 423Q199 496 268.5 578.0Q338 660 367 699Q373 705 384 705Q396 705 409.5 699.0Q423 693 432.5 685.0Q442 677 442 670Q442 664 411 639Q391 621 367 595Q293 506 190 400Q393 100 459 40Q477 24 477 20Q477 11 458.0 1.0Q439 -9 419 -9Q395 -9 381 15Q375 25 367 36Q347 61 147 354L127 334Q127 77 128.5 46.5Q130 16 130 -1Q130 -11 109 -11Z" transform="translate(288.0, 72) scale(0.072, -0.072)" /><path d="M195 -18Q127 -18 87.0 32.0Q47 82 47 175Q47 302 117.5 394.0Q188 486 273 486Q345 486 369 433V475Q369 485 391 485Q407 485 425.0 477.5Q443 470 443 458Q438 411 434 306Q431 225 431 193Q431 91 463 34L465 29Q465 19 452.5 3.0Q440 -13 422 -13Q406 -13 395.5 8.5Q385 30 379.0 60.5Q373 91 371 108Q343 49 295.0 15.5Q247 -18 195 -18ZM194 42Q236 42 274 72Q367 147 367 330Q367 356 368 374Q365 371 355 371Q349 371 346 376Q318 428 273 428Q220 428 167.5 358.0Q115 288 115 180Q115 42 194 42Z" transform="translate(324.0, 72) scale(0.072, -0.072)" /><path d="M107 -6Q91 -6 82.0 12.5Q73 31 73 45Q73 63 88 63L128 62L216 63Q217 110 217 427Q181 422 158.0 422.0Q135 422 123 421Q108 421 99.5 440.5Q91 460 91 474Q91 491 104 491Q138 485 148 485Q217 485 251 495Q274 495 288 466Q294 455 294 449Q294 442 291.0 435.5Q288 429 288 416Q288 129 289 64Q384 64 397 65Q412 65 420.5 45.5Q429 26 429 12Q429 -5 416 -5Q381 1 304 1Q209 1 153 -1ZM250 590Q231 590 216.5 610.0Q202 630 202 650Q202 669 214.0 683.5Q226 698 250 698Q269 698 283.5 677.5Q298 657 298 636Q298 618 285.5 604.0Q273 590 250 590Z" transform="translate(360.0, 72) scale(0.072, -0.072)" /><path d="M64 -7Q33 -7 33 9L36 41Q42 100 45 159Q72 619 72 653Q71 661 71 674Q74 685 93.0 694.0Q112 703 134 703Q144 700 145 698Q150 687 171 591L242 240Q284 423 348 671Q351 684 353.5 697.5Q356 711 368 711Q377 711 392.5 705.5Q408 700 421.5 691.5Q435 683 435 676Q435 666 432.5 656.0Q430 646 430 630Q438 537 447 349L460 93Q463 56 470 16Q470 6 457.0 0.0Q444 -6 428 -6Q396 -6 396 11Q396 143 379 550Q328 351 304 252Q295 209 288.5 177.0Q282 145 281.0 133.5Q280 122 266.0 114.0Q252 106 235 106Q207 106 205 129Q196 184 122 530Q116 392 111 230L105 84V12Q104 3 91.0 -2.0Q78 -7 64 -7Z" transform="translate(432.0, 72) scale(0.072, -0.072)" /><path d="M236 -18Q144 -18 93.5 43.0Q43 104 43 207Q43 251 56.0 294.0Q69 337 87.5 373.0Q106 409 125.0 431.5Q144 454 155 454Q168 454 171 448Q215 486 277 486Q382 486 433 374Q454 321 454 245Q454 150 400 67Q339 -18 236 -18ZM236 43Q322 43 367 141Q388 187 388 245Q388 329 359.0 377.5Q330 426 271 426Q203 426 156.5 356.5Q110 287 110 208Q110 125 143.0 84.0Q176 43 236 43Z" transform="translate(468.0, 72) scale(0.072, -0.072)" /><path d="M115 -11Q99 -11 82.0 -3.0Q65 5 65 17Q65 44 67 88V395Q64 458 64 471Q64 481 84 481Q100 481 117.0 473.0Q134 465 134 453L132 386Q155 428 202.0 456.5Q249 485 300 485Q383 485 414 421Q436 374 436 297Q436 99 437 78Q439 33 439 -2Q439 -11 419 -11Q403 -11 386.0 -3.0Q369 5 369 17Q370 25 370.0 44.5Q370 64 371 84V293Q371 353 356.5 388.0Q342 423 300 423Q231 423 185 368Q142 313 137 229Q133 184 133 79Q133 56 135 -2Q135 -11 115 -11Z" transform="translate(504.0, 72) scale(0.072, -0.072)" /><path d="M236 -18Q144 -18 93.5 43.0Q43 104 43 207Q43 251 56.0 294.0Q69 337 87.5 373.0Q106 409 125.0 431.5Q144 454 155 454Q168 454 171 448Q215 486 277 486Q382 486 433 374Q454 321 454 245Q454 150 400 67Q339 -18 236 -18ZM236 43Q322 43 367 141Q388 187 388 245Q388 329 359.0 377.5Q330 426 271 426Q203 426 156.5 356.5Q110 287 110 208Q110 125 143.0 84.0Q176 43 236 43Z" transform="translate(540.0, 72) scale(0.072, -0.072)" /><path d="M263 -11Q248 -11 230.0 -2.5Q212 6 212 18L214 107V630Q105 623 64 616Q48 616 39.0 634.5Q30 653 30 667Q30 685 45 685Q52 685 70.5 684.0Q89 683 109 683Q123 683 365 700Q404 703 443 708Q457 708 465.0 689.5Q473 671 473 657Q473 639 459 639Q403 642 388 642L283 635Q284 74 285.5 45.5Q287 17 287 0Q287 -11 263 -11Z" transform="translate(612.0, 72) scale(0.072, -0.072)" /><path d="M247 -16Q186 -16 138.0 15.5Q90 47 62.5 116.0Q35 185 35 293Q35 468 105.5 590.0Q176 712 280 712Q386 712 452 619Q454 615 454 610Q454 597 443.0 579.0Q432 561 419 561Q410 561 405 570Q364 647 277 647Q183 647 126 477Q102 396 102 295Q102 48 251 48Q355 48 430 173Q440 188 453 188Q468 188 468 169Q468 164 460 144Q443 100 390 45Q329 -16 247 -16Z" transform="translate(648.0, 72) scale(0.072, -0.072)" /></g></svg>
